X: 32945
T: President Garfield's
R: hornpipe
M: 4/4
K: Amajor
|:AECE AECE|AGAB c^Bcd|eBGB eBGB|e^def e=dcB|
AECE AECE|AGAB c^Bcd|efgf e=dcB|1 A/B/A GB A=dcB:|2 A/B/A GB A2||
|:ag|fdAF DFAf|ecAE CEAe|defe defe|cefe ceag|
fdAF DFAf|ecAE CEAe|^degf e=dcB|1 A/B/A GB A2:|2 A/B/AGB A4||

